packages/smooth_app/assets/onboarding/analytics.svg

<svg width="171" height="120" viewBox="0 0 171 120" fill="none" xmlns="http://www.w3.org/2000/svg">
    <g clip-path="url(#clip0_155_1991)">
        <path d="M144.647 72.0903C143.531 59.3339 138.595 47.8318 131.081 38.6215L133.024 6.09345C133.258 2.22297 129.13 -0.36268 125.778 1.55077L97.4889 17.6927C91.4621 16.3062 85.127 15.8218 78.6369 16.3896C72.1468 16.9574 65.9048 18.5648 60.1733 21.0025L60.22 20.9589L29.5461 9.96996C25.9125 8.6677 22.3026 11.9359 23.1991 15.7019L30.7865 47.5034C25.0347 57.8574 22.1952 69.9946 23.3073 82.7061L144.647 72.0903Z" fill="#AAAAAA"/>
        <path d="M124.379 31.632L125.631 10.6523C125.651 10.3006 125.276 10.0624 124.971 10.2358L106.755 20.6303C113.24 23.2695 119.191 27.0052 124.373 31.6325L124.379 31.632Z" fill="#FFE6DC"/>
        <path d="M69.4882 33.2787C68.5411 33.3615 67.7047 32.6557 67.6214 31.7033L66.5318 19.2494C66.4485 18.297 67.1496 17.4567 68.0967 17.3738C69.0438 17.291 69.8802 17.9968 69.9635 18.9492L71.0526 31.3975C71.1359 32.3499 70.4348 33.1902 69.4877 33.2731L69.4882 33.2787Z" fill="black"/>
        <path d="M90.5404 31.4369C89.5934 31.5197 88.757 30.8139 88.6736 29.8615L87.5841 17.4076C87.5007 16.4552 88.2019 15.6149 89.1489 15.532C90.096 15.4492 90.9324 16.155 91.0157 17.1074L92.1048 29.5557C92.1881 30.5081 91.487 31.3484 90.54 31.4313L90.5404 31.4369Z" fill="black"/>
        <path d="M80.5648 38.621C79.6177 38.7038 78.7813 37.998 78.698 37.0456L76.9806 17.4152C76.8972 16.4628 77.5984 15.6224 78.5454 15.5396C79.4925 15.4567 80.3289 16.1626 80.4122 17.115L82.1297 36.7454C82.213 37.6978 81.5118 38.5381 80.5648 38.621Z" fill="black"/>
        <path d="M51.6445 25.4746L31.8538 18.3827C31.5235 18.2648 31.1956 18.5588 31.2766 18.9073L36.1767 39.4335C40.48 33.9538 45.7073 29.2174 51.6501 25.4741L51.6445 25.4746Z" fill="#FFE6DC"/>
        <path d="M72.9832 78.3601C72.4479 72.2424 76.9444 66.8531 83.0278 66.3209C89.1113 65.7886 94.4753 70.3153 95.0105 76.433L72.9887 78.3596L72.9832 78.3601Z" fill="black"/>
        <path d="M92.6643 60.589C97.4378 67.798 107.141 69.7604 114.306 64.973C121.471 60.1801 123.413 50.4247 118.645 43.2152C113.872 36.0062 104.168 34.0439 97.003 38.8312C89.8384 43.6242 87.8964 53.3796 92.6643 60.589Z" fill="white"/>
        <path d="M96.5431 59.0473C98.7813 62.4305 103.336 63.353 106.698 61.1056C110.061 58.8582 110.974 54.2791 108.735 50.8959C106.497 47.5127 101.942 46.5902 98.5801 48.8376C95.2177 51.085 94.3048 55.6641 96.5431 59.0473Z" fill="black"/>
        <path d="M104.417 52.3464C105.284 53.6592 107.055 54.0179 108.354 53.1422C109.653 52.2665 110.014 50.4905 109.142 49.1838C108.275 47.8709 106.503 47.5122 105.204 48.3879C103.906 49.2637 103.545 51.0396 104.417 52.3464Z" fill="white"/>
        <path d="M72.4586 62.3568C69.0095 70.2852 59.7942 73.9027 51.9066 70.4323C44.0186 66.9563 40.4121 57.6863 43.8556 49.7584C47.3048 41.8301 56.5201 38.2125 64.4076 41.683C72.2956 45.159 75.9022 54.4289 72.4586 62.3568Z" fill="white"/>
        <path d="M68.3711 61.512C66.7543 65.2325 62.429 66.9319 58.7274 65.3025C55.0259 63.6731 53.3317 59.3221 54.9484 55.6016C56.5652 51.8812 60.8906 50.1818 64.5921 51.8112C68.2936 53.4405 69.9879 57.7915 68.3711 61.512Z" fill="black"/>
        <path d="M68.4233 55.4387C67.7974 56.8822 66.115 57.5431 64.684 56.9062C63.2529 56.2693 62.589 54.583 63.221 53.1447C63.8469 51.7012 65.5293 51.0403 66.9603 51.6772C68.3913 52.3141 69.0553 54.0003 68.4233 55.4387Z" fill="white"/>
        <path d="M59.8648 75.5448C49.1798 76.4796 39.7185 68.4953 38.7784 57.7501C37.8383 47.0049 45.7694 37.4989 56.4544 36.5641C67.1394 35.6293 76.6007 43.6137 77.5408 54.3588C78.4809 65.104 70.5498 74.61 59.8648 75.5448ZM56.8951 41.6006C48.9732 42.2937 43.0892 49.3399 43.7867 57.3119C44.4841 65.284 51.4968 71.2019 59.4242 70.5084C67.3516 69.8148 73.23 62.769 72.5325 54.797C71.8351 46.825 64.8224 40.907 56.8951 41.6006Z" fill="black"/>
        <path d="M107.357 71.3898C96.672 72.3246 87.2107 64.3403 86.2706 53.5951C85.3305 42.8499 93.2616 33.3439 103.947 32.4091C114.632 31.4743 124.093 39.4586 125.033 50.2038C125.973 60.949 118.042 70.455 107.357 71.3898ZM104.387 37.4456C96.4654 38.1386 90.5814 45.1849 91.2789 53.1569C91.9763 61.129 98.9889 67.0469 106.916 66.3533C114.844 65.6598 120.722 58.614 120.025 50.642C119.327 42.6699 112.315 36.752 104.387 37.4456Z" fill="black"/>
        <path d="M86.7231 55.2378C83.9229 52.8747 79.7336 53.2412 77.3863 56.0547L73.6769 52.9243C75.6482 50.5616 78.4129 49.1173 81.4601 48.8507C84.5074 48.5841 87.4808 49.5263 89.8325 51.5109L86.7231 55.2378Z" fill="black"/>
    </g>
    <rect y="84.0977" width="167.601" height="36" rx="5" transform="rotate(-5 0 84.0977)" fill="black"/>
    <path d="M12.052 110.147L12.8144 106.24L9.82581 106.502L9.54256 103.264L13.4526 102.922L14.3555 98.326L11.3669 98.5874L11.0836 95.3498L14.9937 95.0077L15.7583 91.1263L19.4941 90.7995L18.7294 94.6809L22.4652 94.354L23.2049 90.4748L26.9406 90.148L26.2009 94.0272L29.1895 93.7657L29.4727 97.0034L25.5378 97.3476L24.6598 101.942L27.6484 101.68L27.9317 104.918L23.9967 105.262L23.2591 109.166L19.5234 109.493L20.261 105.589L16.5501 105.914L15.7877 109.82L12.052 110.147ZM17.1884 102.595L20.9241 102.268L21.802 97.6745L18.0912 97.9991L17.1884 102.595ZM36.3325 102.25L36.2824 101.678C36.2185 100.947 36.2622 100.299 36.4135 99.7338C36.5799 99.1504 36.8103 98.6284 37.1046 98.1676C37.3989 97.7069 37.7051 97.287 38.0233 96.9078C38.4627 96.3842 38.8566 95.9147 39.2051 95.4994C39.5521 95.0675 39.7031 94.5942 39.658 94.0795C39.6275 93.7309 39.5176 93.431 39.3284 93.1799C39.1376 92.9121 38.8697 92.7181 38.5246 92.5977C38.1946 92.4593 37.7888 92.4111 37.3073 92.4532C36.693 92.507 36.1701 92.7451 35.7386 93.1677C35.3223 93.5722 35.0919 94.0942 35.0475 94.7339L31.5095 94.1651C31.5776 93.2222 31.8467 92.3789 32.317 91.6351C32.8039 90.8898 33.4533 90.2809 34.2652 89.8083C35.0937 89.3343 36.0393 89.0508 37.1019 88.9578C38.397 88.8445 39.507 89.0067 40.432 89.4445C41.3721 89.8641 42.1012 90.4528 42.6192 91.2105C43.1358 91.9517 43.4326 92.7622 43.5096 93.6422C43.5648 94.2731 43.4896 94.8485 43.2842 95.3684C43.0938 95.8702 42.8342 96.3447 42.5052 96.7917C42.1748 97.2221 41.8271 97.6457 41.462 98.0625C40.9895 98.589 40.5772 99.1353 40.2252 99.7015C39.8732 100.268 39.7284 100.908 39.7909 101.622L39.8192 101.945L36.3325 102.25ZM36.734 107.987L36.4072 104.252L40.1429 103.925L40.4698 107.66L36.734 107.987ZM59.4965 105.895L47.2418 102.074L46.9194 98.3881L58.3221 92.4717L58.6511 96.2324L50.2504 100.606L50.1371 99.3111L59.1675 102.135L59.4965 105.895ZM62.1012 108.779L68.5222 87.5139L72.5568 87.1609L66.1358 108.426L62.1012 108.779ZM76.4309 104.414L76.1019 100.653L84.5048 96.3044L84.6181 97.5994L75.5855 94.7508L75.2565 90.9902L87.5133 94.8366L87.8358 98.5225L76.4309 104.414ZM93.958 93.9967L91.6269 92.5945L93.1406 90.1031L90.2933 89.3986L90.9157 86.7593L93.7358 87.4411L93.4635 84.328L96.203 84.0883L96.4754 87.2014L99.1343 86.0403L100.205 88.5314L97.5238 89.7196L99.4471 91.9103L97.3949 93.696L95.4716 91.5053L93.958 93.9967ZM103.183 105.185L109.604 83.9197L113.638 83.5667L107.217 104.832L103.183 105.185ZM115.441 104.113L121.862 82.8472L125.897 82.4942L119.476 103.76L115.441 104.113ZM127.239 100.069L131.399 92.829L126.025 86.4732L130.358 86.0941L134.407 91.0602L132.514 91.2258L135.638 85.6322L139.972 85.2531L135.783 92.4455L141.112 98.8555L136.803 99.2324L132.829 94.2598L134.623 94.1029L131.573 99.69L127.239 100.069ZM144.076 98.5961L144.838 94.6898L141.85 94.9513L141.567 91.7136L145.477 91.3715L146.379 86.7754L143.391 87.0368L143.108 83.7992L147.018 83.4571L147.782 79.5757L151.518 79.2489L150.753 83.1303L154.489 82.8034L155.229 78.9242L158.965 78.5974L158.225 82.4766L161.213 82.2151L161.497 85.4528L157.562 85.797L156.684 90.391L159.672 90.1296L159.956 93.3672L156.021 93.7115L155.283 97.6156L151.547 97.9424L152.285 94.0383L148.574 94.363L147.812 98.2693L144.076 98.5961ZM149.212 91.0447L152.948 90.7179L153.826 86.1239L150.115 86.4485L149.212 91.0447Z" fill="white"/>
    <defs>
        <clipPath id="clip0_155_1991">
            <rect width="121.803" height="72.3655" fill="white" transform="translate(17 10.616) rotate(-5)"/>
        </clipPath>
    </defs>
</svg>

<svg width="171" height="120" fill="none" xmlns="http://www.w3.org/2000/svg"><g clip-path="url(#a)"><path d="M144.647 72.09c-1.116-12.756-6.052-24.258-13.566-33.469l1.943-32.528c.234-3.87-3.894-6.456-7.246-4.542l-28.29 16.142a60.43 60.43 0 0 0-18.851-1.303 60.791 60.791 0 0 0-18.464 4.613l.047-.044L29.546 9.97c-3.633-1.302-7.243 1.966-6.347 5.732l7.587 31.801c-5.751 10.354-8.59 22.492-7.479 35.203l121.34-10.616Z" fill="#AAA"/><path d="m124.379 31.632 1.252-20.98a.445.445 0 0 0-.66-.416L106.755 20.63a60.961 60.961 0 0 1 17.618 11.003l.006-.001Z" fill="#FFE6DC"/><path d="M69.488 33.279a1.728 1.728 0 0 1-1.867-1.576l-1.09-12.454a1.728 1.728 0 0 1 1.566-1.875 1.728 1.728 0 0 1 1.867 1.575l1.089 12.448a1.728 1.728 0 0 1-1.565 1.876v.006ZM90.54 31.437a1.728 1.728 0 0 1-1.866-1.576l-1.09-12.453a1.728 1.728 0 0 1 1.565-1.876 1.728 1.728 0 0 1 1.867 1.575l1.089 12.449a1.728 1.728 0 0 1-1.565 1.875v.006ZM80.565 38.621a1.728 1.728 0 0 1-1.867-1.575l-1.717-19.63a1.728 1.728 0 0 1 1.564-1.876 1.728 1.728 0 0 1 1.867 1.575l1.718 19.63a1.728 1.728 0 0 1-1.565 1.876Z" fill="#000"/><path d="m51.645 25.475-19.791-7.092a.443.443 0 0 0-.577.524l4.9 20.527a61.082 61.082 0 0 1 15.473-13.96h-.005Z" fill="#FFE6DC"/><path d="M72.983 78.36c-.535-6.118 3.961-11.507 10.045-12.04 6.083-.531 11.447 3.995 11.982 10.113L72.99 78.36h-.006Z" fill="#000"/><path d="M92.664 60.589c4.774 7.209 14.477 9.171 21.642 4.384 7.165-4.793 9.107-14.548 4.339-21.758-4.773-7.209-14.477-9.171-21.642-4.384-7.165 4.793-9.107 14.549-4.339 21.758Z" fill="#fff"/><path d="M96.543 59.047c2.238 3.384 6.793 4.306 10.155 2.059 3.363-2.248 4.276-6.827 2.037-10.21-2.238-3.383-6.793-4.306-10.155-2.058-3.362 2.247-4.275 6.826-2.037 10.21Z" fill="#000"/><path d="M104.417 52.346a2.829 2.829 0 0 0 3.937.796 2.868 2.868 0 0 0 .788-3.958 2.83 2.83 0 0 0-3.938-.796 2.869 2.869 0 0 0-.787 3.958ZM72.459 62.357c-3.45 7.928-12.665 11.546-20.552 8.075-7.888-3.476-11.495-12.746-8.051-20.674 3.449-7.928 12.664-11.546 20.552-8.075 7.888 3.476 11.494 12.746 8.05 20.674Z" fill="#fff"/><path d="M68.371 61.512c-1.617 3.72-5.942 5.42-9.644 3.79-3.701-1.629-5.395-5.98-3.779-9.7 1.617-3.72 5.943-5.42 9.644-3.79 3.702 1.629 5.396 5.98 3.78 9.7Z" fill="#000"/><path d="M68.423 55.439a2.83 2.83 0 0 1-3.739 1.467 2.868 2.868 0 0 1-1.463-3.761 2.83 2.83 0 0 1 3.74-1.468 2.868 2.868 0 0 1 1.462 3.762Z" fill="#fff"/><path d="M59.865 75.545c-10.685.935-20.147-7.05-21.087-17.795-.94-10.745 6.991-20.251 17.676-21.186 10.685-.935 20.147 7.05 21.087 17.795.94 10.745-6.991 20.251-17.676 21.186ZM56.895 41.6c-7.922.693-13.806 7.739-13.108 15.71.697 7.973 7.71 13.89 15.637 13.197 7.928-.693 13.806-7.739 13.108-15.711-.697-7.972-7.71-13.89-15.637-13.196ZM107.357 71.39c-10.685.935-20.146-7.05-21.086-17.795-.94-10.745 6.99-20.251 17.676-21.186 10.685-.935 20.146 7.05 21.086 17.795.94 10.745-6.991 20.251-17.676 21.186Zm-2.97-33.944c-7.922.693-13.806 7.739-13.108 15.71.697 7.973 7.71 13.89 15.637 13.197 7.928-.693 13.806-7.739 13.109-15.711-.698-7.972-7.71-13.89-15.638-13.196Z" fill="#000"/><path d="M86.723 55.238a6.61 6.61 0 0 0-9.337.817l-3.71-3.13a11.36 11.36 0 0 1 7.784-4.074 11.36 11.36 0 0 1 8.373 2.66l-3.11 3.727Z" fill="#000"/></g><rect y="84.098" width="167.601" height="36" rx="5" transform="rotate(-5 0 84.098)" fill="#000"/><path d="m12.052 110.147.762-3.907-2.988.262-.283-3.238 3.91-.342.902-4.596-2.988.261-.283-3.237 3.91-.342.764-3.882 3.736-.327-.765 3.882 3.736-.327.74-3.88 3.736-.326-.74 3.88 2.988-.262.284 3.237-3.935.345-.878 4.594 2.988-.262.284 3.238-3.935.344-.738 3.904-3.736.327.738-3.904-3.71.325-.763 3.906-3.736.327Zm5.136-7.552 3.736-.327.878-4.594-3.71.325-.904 4.596Zm19.145-.345-.05-.572c-.065-.731-.02-1.379.13-1.944a5.894 5.894 0 0 1 .692-1.566c.294-.461.6-.881.918-1.26l1.182-1.409c.347-.431.498-.905.453-1.42a1.709 1.709 0 0 0-.33-.9 1.603 1.603 0 0 0-.803-.581c-.33-.139-.736-.187-1.218-.145a2.485 2.485 0 0 0-1.568.715c-.417.404-.647.926-.691 1.566l-3.539-.569c.069-.943.338-1.786.808-2.53a5.722 5.722 0 0 1 1.948-1.827c.829-.474 1.774-.757 2.837-.85 1.295-.114 2.405.049 3.33.487.94.42 1.67 1.008 2.187 1.766a4.94 4.94 0 0 1 .89 2.431c.056.631-.02 1.207-.225 1.726-.19.502-.45.977-.779 1.424-.33.43-.678.854-1.043 1.27a11.721 11.721 0 0 0-1.237 1.64c-.352.566-.497 1.206-.434 1.92l.028.323-3.486.305Zm.401 5.737-.327-3.735 3.736-.327.327 3.735-3.736.327Zm22.762-2.092-12.254-3.821-.323-3.686 11.403-5.916.33 3.76-8.402 4.374-.113-1.295 9.03 2.824.33 3.76Zm2.605 2.884 6.421-21.265 4.035-.353-6.421 21.265-4.035.353Zm14.33-4.365-.33-3.761 8.404-4.349.113 1.295-9.032-2.848-.33-3.76 12.257 3.846.323 3.685-11.405 5.892Zm17.527-10.417-2.331-1.403 1.514-2.49-2.848-.705.623-2.64 2.82.682-.273-3.113 2.74-.24.272 3.113 2.66-1.16 1.07 2.49-2.681 1.189 1.923 2.19-2.052 1.786-1.923-2.19-1.514 2.49Zm9.225 11.188 6.421-21.265 4.034-.353-6.421 21.265-4.034.353Zm12.258-1.072 6.421-21.266 4.035-.353-6.421 21.266-4.035.353Zm11.798-4.044 4.16-7.24-5.374-6.356 4.333-.379 4.049 4.966-1.893.166 3.124-5.594 4.334-.379-4.189 7.192 5.329 6.41-4.309.377-3.974-4.972 1.794-.157-3.05 5.587-4.334.379Zm16.837-1.473.762-3.906-2.988.261-.283-3.237 3.91-.343.902-4.596-2.988.262-.283-3.238 3.91-.342.764-3.881 3.736-.327-.765 3.881 3.736-.327.74-3.879 3.736-.327-.74 3.88 2.988-.262.284 3.238-3.935.344-.878 4.594 2.988-.261.284 3.237-3.935.344-.738 3.905-3.736.326.738-3.904-3.711.325-.762 3.906-3.736.327Zm5.136-7.551 3.736-.327.878-4.594-3.711.325-.903 4.596Z" fill="#fff"/><defs><clipPath id="a"><path fill="#fff" transform="rotate(-5 130.073 -189.374)" d="M0 0h121.803v72.365H0z"/></clipPath></defs></svg>
